X: 17388
T: High Road To Linton, The
R: reel
M: 4/4
K: Amajor
|:a2 a2 ef a2|ef ae fa ef|a2 a2 ef ae|fa ec B2 A2:|
|:c2 ec de fd|c2 ec Bc dB|c2 ec de fg|af ec B2 A2:|

